azure-patterns/svg-avere-vfxt.svg

<svg xmlns="http://www.w3.org/2000/svg" viewBox="0 0 211 155">
                                
                            
  <path d="M83.2074 110.588H47.8936V119.47H83.2074V110.588Z"></path>
  <path d="M162.885 39.9713C159.963 39.9713 157.111 40.2778 154.326 40.7796C145.789 17.0145 123.236 0 96.6715 0C62.7835 0 35.3138 27.638 35.3138 61.7335C35.3138 63.6566 35.4286 65.5574 35.6007 67.4361C15.3262 71.3533 0 89.2693 0 110.809C0 135.139 19.5462 154.867 43.7008 154.991V155H83.2082V146.117H43.7141L43.7008 146.104C24.4548 145.984 8.82845 130.2 8.82845 110.809C8.82845 93.9149 20.7866 79.3387 37.2649 76.1587L45.1222 74.6398L44.3895 66.6233C44.2217 64.7847 44.1423 63.1858 44.1423 61.7335C44.1423 32.59 67.7054 8.88252 96.6715 8.88252C118.685 8.88252 138.518 22.9125 146.023 43.7953L148.552 50.8347L155.88 49.5156C158.378 49.067 160.669 48.8494 162.885 48.8494C184.546 48.8494 202.172 66.5834 202.172 88.3766C202.172 110.419 184.546 128.348 162.885 128.348H48.1151V137.231H162.885C189.459 137.231 211 115.113 211 88.3766C211 61.6403 189.459 39.9713 162.885 39.9713Z"></path>
</svg>

<svg xmlns="http://www.w3.org/2000/svg" viewBox="0 0 211 155"><path d="M83.207 110.588H47.894v8.882h35.313v-8.882z"/><path d="M162.885 39.971c-2.922 0-5.774.307-8.559.809C145.789 17.015 123.236 0 96.672 0 62.782 0 35.313 27.638 35.313 61.733c0 1.924.115 3.824.287 5.703C15.326 71.353 0 89.27 0 110.81c0 24.33 19.546 44.058 43.7 44.182V155h39.508v-8.883H43.714l-.013-.013c-19.246-.12-34.873-15.904-34.873-35.295 0-16.894 11.959-31.47 28.437-34.65l7.857-1.52-.733-8.016a53.79 53.79 0 0 1-.247-4.89c0-29.143 23.563-52.85 52.53-52.85 22.013 0 41.846 14.03 49.351 34.912l2.529 7.04 7.328-1.32c2.498-.448 4.789-.666 7.005-.666 21.661 0 39.287 17.734 39.287 39.528 0 22.042-17.626 39.971-39.287 39.971H48.115v8.883h114.77c26.574 0 48.115-22.118 48.115-48.854 0-26.737-21.541-48.406-48.115-48.406z"/></svg>
